X: 2
T: Bill Harte's
R: jig
M: 6/8
L: 1/8
K: Amix
|:ABA e2e|fed efe|ABA e2e|fed BdB|ABA e2e|fed efg|a2f gfe|1 fed BdB:|2 fed B2A|||:a2f gfe|fed efg|a2f gfe|fed B2A|agf gfe|fed efg|aba g2e|1 fed B2A:|2 fed BdB||


Tune 2788	Setting 4501

